X:1
T:Reng–e Parichehr & Parizad
T:Reng–e Parichehr & Parizad
T:Arshad Tahmasbi (Darvish Khan)
C:Arshad Tahmasbi
L:1/8
Q:3/8=60
M:6/8
K:F
V:1 treble nm="Piano" snm="Pno."
V:1
 c6 | (c/B/A<(G G3)) | (F/E/D<(C C3)) | D>FE DCB, | C2 z4 |:[Q:3/8=80] (C>B,)C DED | C2 E D3 | %7
 (C>B,)D CDB, |1 C3 G,2 z :|2 C2 z4 || (c>B)c ded | c2 e d3 | (c>B)d cdc | c3 G2 z | (c>B)c ded | %15
 c2 e d3 | (c>B)c d2 z | (B>A)c B3 | A3 G3 | F3 E3 | D3 CC/D/E/F/ |: G>GG z G/_A/G/F/ | %22
 F>FF z F/G/F/E/ | E>EE z E/F/E/D/ |1 C>C(C C)C/D/E/F/ :|2 C>CC C2 z || D>FE DCB, | C2 z4 | %28
[Q:3/8=120] dd c2 c2 cc B2 B2 | x6 | x6 | (d>e)f dec | (c>d) B2 c z |: C3 E3 | G4 F2 | TE2 D2 E2 | %36
 F4 E2 | TD2 C2 D2 | E4 D2 | C2 B, DCE | (D>F)E DCB, :| C2 z4 | dd c2 c2 cc B2 B2 | x6 | x6 | %45
 (c>d)B cAB | (G>A)F GEF | D2 E2 F2 | (G>A)F GEF | (D>E)C DB,C | A,2 B,2 C2 | D>FE DCB, | %52
 C2 z2 C/D/E/F/ |: G>FG FED | F>EF EDC | D>EG FED | C D2 D2 z | D2 E2 F2 | F>FE FED | C D2 D2 z | %60
 F>EF EDC | E>DE DCB, | C2 D2 E2 | (F>FE D)(EE | DC)(D DCB,) |1 C3 E3 | G3 z C/D/E/F/ :|2 %67
 A,2 z B,2 z | C2 z4 |] %69

